public/img/SuperDigital-signet.svg

<svg fill="none" height="31" viewBox="0 0 31 31" width="31" xmlns="http://www.w3.org/2000/svg"><path d="m30.1167 15.4782c0-8.39261-6.6817-15.187228-14.913-15.187228-8.23136 0-14.913002 6.794618-14.913002 15.187228 0 8.3925 6.681642 15.1872 14.913002 15.1872 8.2313 0 14.913-6.7947 14.913-15.1872z" fill="#10375c" stroke="#ffda19" stroke-width=".581395"/><path d="m14.1163 22.0479c2.0564 0 3.7029-.4651 4.9393-1.3951 1.249-.9174 1.8735-2.6078 1.8735-5.0711 0-2.4256-.6056-4.1348-1.8168-5.1277-1.2111-.9803-2.7819-1.47045-4.7122-1.47045h-3.9362v13.06435zm-.5488-2.2434v-8.5776h1.0219c1.0219 0 1.7978.3142 2.3277.9426.5299.641.7948 1.7784.7948 3.4122 0 1.1185-.1324 1.9857-.3974 2.6015-.2649.6159-.6245 1.0369-1.0787 1.2631-.4542.2388-1.0156.3582-1.6843.3582z" fill="#f4f6ff"/><g fill="#f3c623"><path d="m26.004 26.5078c1.4114-1.4415 2.5309-3.1529 3.2947-5.0364s1.157-3.9022 1.157-5.9409c0-2.0386-.3932-4.0573-1.157-5.94084-.7638-1.88346-1.8833-3.59485-3.2947-5.03641l-2.1495 2.19547c1.1291 1.15326 2.0247 2.52236 2.6358 4.02918.611 1.5067.9256 3.1217.9256 4.7526 0 1.631-.3146 3.2459-.9256 4.7527-.6111 1.5068-1.5067 2.8759-2.6358 4.0292z"/><path d="m4.45659 4.4624c-1.41137 1.44156-2.5309 3.15295-3.29473 5.03646-.763828 1.88344-1.15697719 3.90214-1.15697719 5.94084s.39314919 4.0574 1.15697719 5.9409c.76383 1.8834 1.88336 3.5948 3.29473 5.0364l2.14949-2.1955c-1.12907-1.1532-2.02476-2.5223-2.63581-4.0291-.61104-1.5068-.92555-3.1218-.92555-4.7527s.31451-3.2459.92555-4.7527c.61105-1.50677 1.50674-2.87587 2.63581-4.02913z"/></g></svg>

<svg width="31" height="31" viewBox="0 0 31 31" fill="none" xmlns="http://www.w3.org/2000/svg">
<path d="M30.1167 15.4782C30.1167 7.08559 23.435 0.290972 15.2037 0.290972C6.97234 0.290972 0.290698 7.08559 0.290698 15.4782C0.290698 23.8707 6.97234 30.6654 15.2037 30.6654C23.435 30.6654 30.1167 23.8707 30.1167 15.4782Z" fill="#10375C" stroke="#FFDA19" stroke-width="0.581395"/>
<path d="M14.1163 22.0479C16.1727 22.0479 17.8192 21.5828 19.0556 20.6528C20.3046 19.7354 20.9291 18.045 20.9291 15.5817C20.9291 13.1561 20.3235 11.4469 19.1123 10.454C17.9012 9.4737 16.3304 8.98355 14.4001 8.98355H10.4639V22.0479H14.1163ZM13.5675 19.8045V11.2269H14.5894C15.6113 11.2269 16.3872 11.5411 16.9171 12.1695C17.447 12.8105 17.7119 13.9479 17.7119 15.5817C17.7119 16.7002 17.5795 17.5674 17.3145 18.1832C17.0496 18.7991 16.69 19.2201 16.2358 19.4463C15.7816 19.6851 15.2202 19.8045 14.5515 19.8045H13.5675Z" fill="#F4F6FF"/>
<path d="M26.004 26.5078C27.4154 25.0663 28.5349 23.3549 29.2987 21.4714C30.0625 19.5879 30.4557 17.5692 30.4557 15.5305C30.4557 13.4919 30.0625 11.4732 29.2987 9.58966C28.5349 7.7062 27.4154 5.99481 26.004 4.55325L23.8545 6.74872C24.9836 7.90198 25.8792 9.27108 26.4903 10.7779C27.1013 12.2846 27.4159 13.8996 27.4159 15.5305C27.4159 17.1615 27.1013 18.7764 26.4903 20.2832C25.8792 21.79 24.9836 23.1591 23.8545 24.3124L26.004 26.5078Z" fill="#F3C623"/>
<path d="M4.45659 4.4624C3.04522 5.90396 1.92569 7.61535 1.16186 9.49886C0.398032 11.3823 0.00488281 13.401 0.00488281 15.4397C0.00488281 17.4784 0.398032 19.4971 1.16186 21.3806C1.92569 23.264 3.04522 24.9754 4.45659 26.417L6.60608 24.2215C5.47701 23.0683 4.58132 21.6992 3.97027 20.1924C3.35923 18.6856 3.04472 17.0706 3.04472 15.4397C3.04472 13.8088 3.35923 12.1938 3.97027 10.687C4.58132 9.18023 5.47701 7.81113 6.60608 6.65787L4.45659 4.4624Z" fill="#F3C623"/>
</svg>
